trunk/public/assets/images/icons/white/refresh/file-pdf.svg

<svg width="16" height="16" xmlns="http://www.w3.org/2000/svg" viewBox="0 0 16 16" shape-rendering="geometricPrecision" fill="#fff"><defs><mask id="a"><rect width="100%" height="100%"/><path d="M17.514 2.67l-.862-.55L16.65-1h-2.866v.558c-1.334-.3-2.758.103-3.723 1.067-1.568 1.57-1.553 4.14.036 5.732.78.777 1.81 1.205 2.9 1.205 1.072 0 2.078-.415 2.832-1.168C16.585 5.64 17 4.63 17 3.557V2.67h.514zm-3.373.888c0 .22-.057.54-.332.813-.443.444-1.23.427-1.69-.034-.475-.475-.49-1.234-.036-1.69.01-.01.02-.02.033-.03v.922h2.026v.02z" fill="#000"/></mask></defs><path d="M13.114 2.537h2.538V0h-.868v1.105c-1.204-.927-2.924-.863-4.016.227-1.187 1.188-1.162 3.12.035 4.317 1.2 1.197 3.13 1.223 4.32.036.584-.584.878-1.357.877-2.128h-.86c0 .558-.207 1.103-.626 1.522-.843.842-2.23.836-3.104-.036-.87-.872-.877-2.26-.035-3.105.73-.728 1.86-.82 2.72-.27h-.982v.867z" fill="#cb1800"/><g mask="url(#a)"><path d="M10.055 14.302l2.54-2.338h-2.54"/><path d="M2.595 1.016v13.97h6.008v-4.47h4.802v-9.5H2.595zm9.44 8.027h-4.79v4.6H3.916V2.32h8.116v6.725z"/><path fill-rule="evenodd" clip-rule="evenodd" d="M9.795 6.744c.643.512 1.164.3 1.088.2-.23-.297-.683-.297-1.088-.2zm.834-.288c-.645-.218-1.502 0-1.47.026-.43-.213-1.014-.523-1.334-1.54-.537-1.706 0-2.256.035-1.19l.11.724s.37-.903.13-1.562c-.208-.574-.81-.488-.846.573-.02.585.12 1.464.186 1.6 0 0-.558 1.642-1.384 2.932-.8 1.25-.85.83-.656.412.23-.496.624-.757.755-.964 0 0-.61.048-1.083.86-.3.514-.335 1.79.94.406.254-.275.614-.852.778-1.195 0 0 .742-.325 2.514-.67 0 0 .478.35 1.098.493.77.177 1.562-.454.227-.907zm-3.626.54l.645-1.48c.426.908 1.032 1.093 1.032 1.093-.263.033-1.678.387-1.678.387z"/></g></svg>

<?xml version="1.0"?><!DOCTYPE svg PUBLIC "-//W3C//DTD SVG 1.1//EN" "http://www.w3.org/Graphics/SVG/1.1/DTD/svg11.dtd"><svg width="16px" height="16px" xmlns="http://www.w3.org/2000/svg" viewBox="0 0 16 16" shape-rendering="geometricPrecision" fill="#fff"><defs><mask id="refresh-path"><rect fill="#fff" width="100%" height="100%"/><path d="M17.514,2.671l-0.862-0.552L16.65-1h-2.866v0.558c-1.334-0.3-2.758,0.103-3.723,1.067 c-1.569,1.569-1.554,4.141,0.035,5.732c0.779,0.777,1.809,1.205,2.901,1.205c1.071,0,2.077-0.415,2.831-1.168 C16.585,5.639,17.001,4.631,17,3.557l0-0.886H17.514z M14.141,3.558c0,0.22-0.058,0.539-0.333,0.813 c-0.443,0.443-1.23,0.426-1.69-0.035c-0.475-0.475-0.49-1.234-0.036-1.689c0.011-0.011,0.021-0.022,0.033-0.031l0,0.922h2.026 V3.558z" fill="#000"/></mask></defs><path display="inline" d="M13.114,2.537h2.538L15.651,0h-0.867v1.105 c-1.204-0.927-2.924-0.863-4.016,0.227C9.581,2.52,9.606,4.451,10.803,5.649c1.201,1.198,3.131,1.224,4.319,0.037 C15.707,5.102,16.001,4.329,16,3.558l-0.859,0.001c-0.001,0.557-0.208,1.102-0.627,1.521c-0.843,0.842-2.231,0.836-3.104-0.036 c-0.871-0.872-0.877-2.26-0.035-3.105c0.729-0.727,1.86-0.818,2.721-0.268h-0.983L13.114,2.537z" fill="#cb1800"/><g mask="url(#refresh-path)"><g><polygon points="10.055,14.302 12.595,11.964 10.055,11.964"/><path d="M2.595,1.016v13.969h6.008v-4.468h4.802V1.016H2.595z M12.034,9.043h-4.79v4.601H3.917V2.318h8.116V9.043z"/></g><path fill-rule="evenodd" clip-rule="evenodd" d="M9.795,6.744c0.643,0.512,1.164,0.299,1.088,0.201 C10.653,6.647,10.2,6.647,9.795,6.744z M10.629,6.456C9.985,6.238,9.128,6.455,9.161,6.482C8.729,6.269,8.146,5.959,7.826,4.941 c-0.537-1.705,0-2.255,0.035-1.189l0.108,0.724c0,0,0.371-0.903,0.131-1.562C7.892,2.34,7.29,2.426,7.254,3.487 C7.234,4.072,7.375,4.951,7.44,5.088c0,0-0.558,1.641-1.384,2.931C5.255,9.271,5.206,8.849,5.4,8.432 c0.231-0.496,0.624-0.757,0.755-0.964c0,0-0.609,0.048-1.083,0.86c-0.299,0.514-0.335,1.79,0.941,0.406 c0.253-0.275,0.613-0.852,0.777-1.195c0,0,0.742-0.324,2.514-0.668c0,0,0.478,0.349,1.098,0.492 C11.172,7.54,11.964,6.909,10.629,6.456z M7.004,6.997l0.645-1.482c0.427,0.909,1.033,1.094,1.033,1.094 C8.419,6.643,7.004,6.997,7.004,6.997z"/></g></svg>
